icons/cross.svg

<!-- Generated by IcoMoon.io -->
<svg version="1.1" xmlns="http://www.w3.org/2000/svg" width="32" height="32" viewBox="0 0 32 32">
<title>cross</title>
<path d="M31.708 25.708c-0-0-0-0-0-0l-9.708-9.708 9.708-9.708c0-0 0-0 0-0 0.105-0.105 0.18-0.227 0.229-0.357 0.133-0.356 0.057-0.771-0.229-1.057l-4.586-4.586c-0.286-0.286-0.702-0.361-1.057-0.229-0.13 0.048-0.252 0.124-0.357 0.228 0 0-0 0-0 0l-9.708 9.708-9.708-9.708c-0-0-0-0-0-0-0.105-0.104-0.227-0.18-0.357-0.228-0.356-0.133-0.771-0.057-1.057 0.229l-4.586 4.586c-0.286 0.286-0.361 0.702-0.229 1.057 0.049 0.13 0.124 0.252 0.229 0.357 0 0 0 0 0 0l9.708 9.708-9.708 9.708c-0 0-0 0-0 0-0.104 0.105-0.18 0.227-0.229 0.357-0.133 0.355-0.057 0.771 0.229 1.057l4.586 4.586c0.286 0.286 0.702 0.361 1.057 0.229 0.13-0.049 0.252-0.124 0.357-0.229 0-0 0-0 0-0l9.708-9.708 9.708 9.708c0 0 0 0 0 0 0.105 0.105 0.227 0.18 0.357 0.229 0.356 0.133 0.771 0.057 1.057-0.229l4.586-4.586c0.286-0.286 0.362-0.702 0.229-1.057-0.049-0.13-0.124-0.252-0.229-0.357z"></path>
</svg>

<?xml version="1.0" encoding="utf-8"?>
<!-- Generator: Adobe Illustrator 26.0.1, SVG Export Plug-In . SVG Version: 6.00 Build 0)  -->
<svg version="1.1" id="Layer_1" xmlns="http://www.w3.org/2000/svg" xmlns:xlink="http://www.w3.org/1999/xlink" x="0px" y="0px"
	 viewBox="0 0 32 32" style="enable-background:new 0 0 32 32;" xml:space="preserve">
<path d="M31.7,25.7L31.7,25.7L22,16l9.7-9.7l0,0c0.1-0.1,0.2-0.2,0.2-0.4c0.1-0.4,0.1-0.8-0.2-1.1l-4.6-4.6
	c-0.3-0.3-0.7-0.4-1.1-0.2c-0.1,0-0.3,0.1-0.4,0.2l0,0L16,10L6.3,0.3l0,0C6.2,0.2,6.1,0.1,5.9,0.1C5.6-0.1,5.2,0,4.9,0.3L0.3,4.9
	C0,5.2-0.1,5.6,0.1,5.9c0,0.1,0.1,0.3,0.2,0.4l0,0L10,16l-9.7,9.7l0,0c-0.1,0.1-0.2,0.2-0.2,0.4c-0.1,0.4-0.1,0.8,0.2,1.1l4.6,4.6
	c0.3,0.3,0.7,0.4,1.1,0.2c0.1,0,0.3-0.1,0.4-0.2l0,0L16,22l9.7,9.7l0,0c0.1,0.1,0.2,0.2,0.4,0.2c0.4,0.1,0.8,0.1,1.1-0.2l4.6-4.6
	c0.3-0.3,0.4-0.7,0.2-1.1C31.9,25.9,31.8,25.8,31.7,25.7z"/>
</svg>
